X:1
T:Ring Out the Bells for Christmas
T:Ring Out the Bells for Christmas
T:William Augustine Ogden,1870
T:Edward Abiel Washburn (1819-1881)
T:Public Domain Courtesy of the Cyber Hymnal™
T:Public Domain Courtesy of the Cyber Hymnal™
C:William Augustine Ogden,1870
Z:Public Domain
Z:Courtesy of the Cyber Hymnal™
%%score ( 1 2 ) ( 3 4 )
L:1/8
Q:1/4=103
M:4/4
K:Bb
V:1 treble 
V:2 treble 
V:3 bass 
V:4 bass 
V:1
 F | BFDB, F2 FF | [Ec][EA][EG][EA] [DB]3 F | BFDB, CDE[EG] | [DF][DF][EA][EA] [DB]3 (A/B/) | %5
w: 1.~Ring|out the bells for Christ- mas, The|hap- py hap- py day; In|win- ter wild, the ho- ly child With-|in the cra- dle lay. O *|
w: 2.~On|Beth- ’lem’s qui- et hill- side, In|ag- es long gone by, In|an- gel notes the glo- ry floats, “Glo-|ry to God on high.” Yet *|
w: 3.~Wher-|e’er His sweet lambs ga- ther, With-|in this gen- tle fold The|Sav- ior dear is wait- ing near, As|in the days of old. In *|
w: 4.~In|many a dark- some cot- tage, In|many a crowd- ed street, In|win- ter bleak, with shiv- ering cheek, The|home- less child you meet. Gaze *|
w: 5.~Then|sing your glad- some car- ols, And|hail the new- born sun; For|Christ- mas light is pass- ing bright, It|smiles on ev- ery- one; And *|
 [Fc][Fc][Fd][Fd] [Fc]2 [FA][FA] | [=Ec][EB][EA][EG] (A2 F) (A/B/) | %7
w: won- der- ful! the Sav- ior Is|in the man- ger lone; * His *|
w: wakes the sun as joy- ous As|when the Lord was born, * And *|
w: each young heart you see Him, In|ev- ery guile- less face, * You *|
w: upon the pale, wan fea- tures, The|feet with wand- ering sore. * You *|
w: feast Christ’s lit- tle child- ren, His|poor, his or- phans call, * For *|
 [Fc][Fc][Fd][Fd] [Fc]2 [FA][FA] | [=Ec][EB][EA][EG] F3 ||"^Refrain" F | BFDB, F2 FF | %11
w: pal- ace is a sta- ble, And|Ma- ry’s arms His throne.|||
w: still He comes to greet you On|ev- ery Christ- mas morn.|||
w: see the ho- ly Je- sus, Who|grew in truth and grace.|Ring|out the bells for Christ- mas, The|
w: see the souls He lov- eth, The|Christ child at the door.|||
w: He Who chose the man- ger, He|lov- eth one and all.|||
 [Fc][FA][FG]F [Fd]2 [DB]F | BFDB, F2 FF | [Ec][EA][EG][EA] [DB]3 |] %14
w: |||
w: |||
w: mer- ry, mer- ry Christ- mas, Ring|out the bells for Christ- mas, The|hap- py, hap- py day.|
w: |||
w: |||
V:2
 F | BFDB, F2 FF | x7 F | BFDB, CDE x | x7 F | x8 | x4 F3 F | x8 | x4 F3 || F | BFDB, F2 FF | %11
 x3 F x2 F x | BFDB, F2 FF | x7 |] %14
V:3
 F, | B,F,D,B,, F,2 F,F, | [F,A,][F,C][F,C][F,C] [B,,B,]3 F, | B,F,D,B,, C,D,E,[D,B,] | %4
 [F,B,][F,B,][F,C][F,C] [B,,B,]3 (F,/G,/) | [F,A,][F,A,][F,B,][F,B,] [F,A,]2 [F,C]F, | %6
 [C,G,][C,G,][C,C][C,C] (C2 A,) (F,/G,/) | [F,A,][F,A,][F,B,][F,B,] [F,A,]2 [F,C]F, | %8
 [C,G,][C,G,][C,C][C,B,] A,3 || [F,A,] | B,F,D,B,, F,2 F,F, | %11
 [F,A,][F,C][F,C][F,A,] [B,,B,]2 [B,,B,]F, | B,F,D,B,, F,2 F,F, | [F,A,][F,C][F,C]F, [B,,F,]3 |] %14
V:4
 F, | B,F,D,B,, F,2 F,F, | x7 F, | B,F,D,B,, C,D,E, x | x7 F, | x7 F, | x4 F,3 F, | x7 F, | %8
 x4 (F,E,D,) || x | B,F,D,B,, F,2 F,F, | x7 F, | B,F,D,B,, F,2 F,F, | x3 F, x3 |] %14

